X:1
T:Title
%%score ( 1 2 ) { 3 | 4 }
L:1/8
Q:1/4=115
M:4/4
K:G
V:1 treble nm="Grand Piano, Soprano"
V:2 treble 
V:3 bass nm="Choir Pad, Diman, LM"
V:4 bass 
V:1
 [B,D]4 [B,G]2 [DB]2 | [B,D]6 [DB]2 | A2 E2 F2 D2 | [B,G]6 z2 | [GB]4 [Gc]2 [Ge]2 | [Gd]4 [GB]4 | %6
w: By~Joseph~Emerson~Sweetser~(1817–1873) * *||||||
 A2 d2 e2 A2 | [Fd]6 z2 | [Fe]4 [FA]2 [Fe]2 | [Gd]4 D2 B2 | [^CA]4 C2- [CB]2 | [CA]6 z2 | %12
w: ||||||
 [B,D]4 [B,G]2 [DB]2 | [B,D]6 [DB]2 | A2 E2 F2 D2 | [B,G]8 |] %16
w: ||||
V:2
 x8 | x8 | ^C4 =C4 | x8 | x8 | x8 | F4 G4 | x8 | x8 | x8 | z4 E2 z2 | x8 | x8 | x8 | ^C4 =C4 | %15
 x8 |] %16
V:3
 D,4 D,2 D,2 | D,6 G,2 | E,4 D,2 A,2 | G,6 z2 | D4 E2 C2 | B,4 D4 | D4 ^C4 | D6 z2 | C4 C2 C2 | %9
 B,4 B,4 | E,4 G,4 | F,6 z2 | D,4 D,2 D,2 | D,6 G,2 | E,4 D,2 A,2 | G,8 |] %16
V:4
 G,,4 G,,2 G,,2 | G,,6 G,,2 | A,,4 z4 | G,,6 z2 | G,4 G,2 G,2 | G,4 G,4 | A,4 A,4 | D,6 z2 | %8
 D,4 D,2 D,2 | G,4 G,,4 | A,,4 A,,4 | D,6 z2 | G,,4 G,,2 G,,2 | G,,6 G,,2 | A,,4 z4 | G,,8 |] %16

